icons/linear-ele-other-unlock.svg

<svg xmlns="http://www.w3.org/2000/svg" width="32px" height="32px" viewBox="0 0 32 32" version="1.1">
    <title>linear-ele-other-unlock</title>
    <g id="linear-ele-other-unlock" stroke-width="1" fill-rule="evenodd">
        <path d="M16,2 C19.269625,2 22.1727325,3.97989374 23.3983528,6.95143255 L21.549445,7.71402021 C20.6300853,5.48501577 18.4526147,4 16,4 C12.6862915,4 10,6.6862915 10,10 L9.999,12 L27,12 C27.5522847,12 28,12.4477153 28,13 L28,29 C28,29.5522847 27.5522847,30 27,30 L5,30 C4.44771525,30 4,29.5522847 4,29 L4,13 C4,12.4477153 4.44771525,12 5,12 L7.999,12 L8,10 C8,5.581722 11.581722,2 16,2 Z M26,14 L6,14 L6,28 L26,28 L26,14 Z M16,17 C16.5522847,17 17,17.4477153 17,18 L17,24 C17,24.5522847 16.5522847,25 16,25 C15.4477153,25 15,24.5522847 15,24 L15,18 C15,17.4477153 15.4477153,17 16,17 Z" id="&#24418;&#29366;" fill-rule="nonzero" />
    </g>
</svg>

<svg xmlns="http://www.w3.org/2000/svg" viewBox="0 0 32 32"><path fill="currentColor" d="M16 2c3.27 0 6.173 1.98 7.398 4.951l-1.849.763A6.002 6.002 0 0 0 10 10l-.001 2H27a1 1 0 0 1 1 1v16a1 1 0 0 1-1 1H5a1 1 0 0 1-1-1V13a1 1 0 0 1 1-1h2.999L8 10a8 8 0 0 1 8-8m10 12H6v14h20zm-10 3a1 1 0 0 1 1 1v6a1 1 0 0 1-2 0v-6a1 1 0 0 1 1-1"/></svg>
